X: 11503
T: The BEAUTIES OF WINDSOR
Q: "Hornpipe."
%R: hornpipe, reel
B: W. Hamilton "Universal Tune-Book" Vol. 1 Glasgow 1844 p.150 #3
S: http://imslp.org/wiki/Hamilton's_Universal_Tune-Book_(Various)
Z: 2016 John Chambers <jc:trillian.mit.edu>
M: C
L: 1/8
K: G
% - - - - - - - - - - - - - - - - - - - - - - - - -
|:\
BcdB G2gf | efge Te2d2 |\
GDGD FDFD | GDBD ADdd |\
BcdB G2gf | efge Te2d2 |
GDGD FDFD | {B}AGAB G2G2 :|\
|:\
Bdce AcBd | GBdg afdc |\
Bdce AcBd | EGFA G2G2 :|
% - - - - - - - - - - - - - - - - - - - - - - - - -

%%sep 1 1 500
%%sep 1 1 500

